public/svg/broker-info-six-active.svg

<svg width="70" height="70" viewBox="0 0 70 70" fill="none" xmlns="http://www.w3.org/2000/svg">
<path d="M68.6397 44.5703H1.36026C-0.454102 44.6425 -0.452735 47.2332 1.36026 47.3047H8.11541C12.8486 59.0292 21.5321 66.4401 34.6462 69.9534C34.8781 70.0155 35.1222 70.0155 35.3541 69.9534C48.4689 66.44 57.1526 59.0289 61.8856 47.3047H68.6397C70.4541 47.2324 70.4527 44.642 68.6397 44.5703ZM52.8613 47.3047C52.4962 48.0022 52.1117 48.6739 51.7111 49.313C48.0463 55.161 42.5775 59.1563 34.9998 61.518C27.4223 59.1563 21.9534 55.161 18.2886 49.313C17.888 48.6739 17.5035 48.0024 17.1384 47.3048H52.8613V47.3047ZM35 67.2162C23.3589 64.0097 15.5166 57.4856 11.0809 47.3047H14.084C14.6605 48.5224 15.2945 49.6847 15.9712 50.7646C20.0661 57.2991 26.1615 61.7124 34.6055 64.257C34.8628 64.3345 35.1373 64.3345 35.3946 64.257C43.8387 61.7125 49.9341 57.2991 54.029 50.7648C54.7057 49.6847 55.3396 48.5224 55.9161 47.3047H58.9203C54.4845 57.4855 46.6418 64.0095 35 67.2162Z" fill="#ffffff"/>
<path d="M1.36031 25.4297H68.6397C70.4541 25.3574 70.4527 22.767 68.6397 22.6953H66.3412C66.4154 20.7225 66.4515 18.6543 66.4515 16.4063C66.4515 15.6512 65.8392 15.0391 65.0841 15.0391C57.544 15.0391 51.4096 8.90587 51.4096 1.36719C51.4096 0.61209 50.7973 0 50.0422 0H19.9579C19.2026 0 18.5904 0.61209 18.5904 1.36719C18.5904 8.90587 12.4561 15.0391 4.91586 15.0391C4.16061 15.0391 3.54839 15.6512 3.54839 16.4063C3.54839 18.6572 3.58449 20.7253 3.65847 22.6953H1.36031C-0.454187 22.7675 -0.452683 25.3582 1.36031 25.4297ZM6.2877 17.7166C14.2458 17.0554 20.6091 10.6913 21.2689 2.73438H48.731C49.3909 10.6913 55.7541 17.0554 63.7123 17.7166C63.7006 19.4696 63.6649 21.114 63.6042 22.6953H60.8728C60.8921 22.1902 60.9088 21.6761 60.9227 21.1579C60.9397 20.5311 60.5278 19.973 59.9236 19.8043C53.4982 18.0098 48.4035 12.9012 46.628 6.472C46.4643 5.87932 45.9249 5.46875 45.3098 5.46875H41.1531C39.3387 5.54108 39.3401 8.13149 41.1531 8.20313H44.2954C46.4474 14.7364 51.6323 19.9422 58.1569 22.1219C58.1502 22.3143 58.1432 22.5054 58.1358 22.6953H11.8641C11.8567 22.5054 11.8497 22.3143 11.843 22.1219C18.3675 19.9422 23.5525 14.7364 25.7047 8.20313H28.846C30.6604 8.13094 30.659 5.54026 28.846 5.46875H24.6901C24.075 5.46875 23.5357 5.87932 23.372 6.472C21.5965 12.9012 16.5019 18.01 10.0764 19.8043C9.4724 19.973 9.06052 20.5308 9.07734 21.1577C9.09115 21.6757 9.10783 22.1899 9.12712 22.6952H6.39532C6.33488 21.1158 6.29933 19.4715 6.2877 17.7166Z" fill="#ffffff"/>
<path d="M34.9994 8.20313C36.8136 8.13094 36.8122 5.54025 34.9994 5.46875H34.9984C33.184 5.54121 33.1865 8.13176 34.9994 8.20313Z" fill="#ffffff"/>
<path d="M16.413 34.387C16.413 33.5703 16.511 32.861 16.707 32.259C16.9077 31.657 17.1783 31.16 17.519 30.768C17.8597 30.3713 18.2423 30.0773 18.667 29.886C19.0917 29.69 19.5303 29.592 19.983 29.592C20.4403 29.592 20.8813 29.69 21.306 29.886C21.7353 30.0773 22.118 30.3713 22.454 30.768C22.79 31.16 23.056 31.657 23.252 32.259C23.448 32.861 23.546 33.5703 23.546 34.387C23.546 35.2317 23.448 35.955 23.252 36.557C23.056 37.159 22.79 37.6537 22.454 38.041C22.118 38.4237 21.7353 38.7083 21.306 38.895C20.8813 39.077 20.4403 39.168 19.983 39.168C19.5303 39.168 19.0917 39.077 18.667 38.895C18.2423 38.7083 17.8597 38.4237 17.519 38.041C17.1783 37.6537 16.9077 37.159 16.707 36.557C16.511 35.955 16.413 35.2317 16.413 34.387ZM17.904 34.387C17.904 35.1617 17.995 35.808 18.177 36.326C18.3637 36.8393 18.6133 37.222 18.926 37.474C19.2433 37.7213 19.5957 37.845 19.983 37.845C20.3797 37.845 20.732 37.719 21.04 37.467C21.3527 37.215 21.6 36.8323 21.782 36.319C21.964 35.8057 22.055 35.1617 22.055 34.387C22.055 33.6263 21.964 32.9893 21.782 32.476C21.6 31.9627 21.3527 31.5753 21.04 31.314C20.732 31.048 20.3797 30.915 19.983 30.915C19.5957 30.915 19.2433 31.048 18.926 31.314C18.6133 31.5753 18.3637 31.965 18.177 32.483C17.995 32.9963 17.904 33.631 17.904 34.387ZM26.2195 39.168C25.9348 39.168 25.6898 39.0677 25.4845 38.867C25.2838 38.6617 25.1835 38.4143 25.1835 38.125C25.1835 37.8357 25.2838 37.5883 25.4845 37.383C25.6898 37.1777 25.9348 37.075 26.2195 37.075C26.5135 37.075 26.7608 37.1777 26.9615 37.383C27.1668 37.5883 27.2695 37.8357 27.2695 38.125C27.2695 38.4143 27.1668 38.6617 26.9615 38.867C26.7608 39.0677 26.5135 39.168 26.2195 39.168ZM30.1901 39L33.1721 35.423C33.0834 35.5163 32.9318 35.6073 32.7171 35.696C32.5024 35.78 32.2341 35.822 31.9121 35.822C31.4081 35.822 30.9298 35.696 30.4771 35.444C30.0291 35.1873 29.6651 34.828 29.3851 34.366C29.1098 33.904 28.9721 33.3673 28.9721 32.756C28.9721 32.1447 29.1214 31.601 29.4201 31.125C29.7188 30.649 30.1178 30.2757 30.6171 30.005C31.1164 29.7297 31.6694 29.592 32.2761 29.592C32.8921 29.592 33.4474 29.725 33.9421 29.991C34.4414 30.257 34.8381 30.635 35.1321 31.125C35.4261 31.615 35.5731 32.1913 35.5731 32.854C35.5731 33.5587 35.4541 34.156 35.2161 34.646C34.9781 35.1313 34.7004 35.57 34.3831 35.962L31.9331 39H30.1901ZM32.2621 34.611C32.6121 34.611 32.9294 34.527 33.2141 34.359C33.5034 34.191 33.7344 33.9623 33.9071 33.673C34.0798 33.3837 34.1661 33.0663 34.1661 32.721C34.1661 32.371 34.0798 32.0537 33.9071 31.769C33.7344 31.4797 33.5034 31.251 33.2141 31.083C32.9294 30.9103 32.6121 30.824 32.2621 30.824C31.9168 30.824 31.5994 30.9103 31.3101 31.083C31.0254 31.251 30.7968 31.4797 30.6241 31.769C30.4561 32.0537 30.3721 32.371 30.3721 32.721C30.3721 33.0663 30.4561 33.3837 30.6241 33.673C30.7968 33.9623 31.0254 34.191 31.3101 34.359C31.5994 34.527 31.9168 34.611 32.2621 34.611ZM37.942 39L40.924 35.423C40.8354 35.5163 40.6837 35.6073 40.469 35.696C40.2544 35.78 39.986 35.822 39.664 35.822C39.16 35.822 38.6817 35.696 38.229 35.444C37.781 35.1873 37.417 34.828 37.137 34.366C36.8617 33.904 36.724 33.3673 36.724 32.756C36.724 32.1447 36.8734 31.601 37.172 31.125C37.4707 30.649 37.8697 30.2757 38.369 30.005C38.8684 29.7297 39.4214 29.592 40.028 29.592C40.644 29.592 41.1994 29.725 41.694 29.991C42.1934 30.257 42.59 30.635 42.884 31.125C43.178 31.615 43.325 32.1913 43.325 32.854C43.325 33.5587 43.206 34.156 42.968 34.646C42.73 35.1313 42.4524 35.57 42.135 35.962L39.685 39H37.942ZM40.014 34.611C40.364 34.611 40.6814 34.527 40.966 34.359C41.2554 34.191 41.4864 33.9623 41.659 33.673C41.8317 33.3837 41.918 33.0663 41.918 32.721C41.918 32.371 41.8317 32.0537 41.659 31.769C41.4864 31.4797 41.2554 31.251 40.966 31.083C40.6814 30.9103 40.364 30.824 40.014 30.824C39.6687 30.824 39.3514 30.9103 39.062 31.083C38.7774 31.251 38.5487 31.4797 38.376 31.769C38.208 32.0537 38.124 32.371 38.124 32.721C38.124 33.0663 38.208 33.3837 38.376 33.673C38.5487 33.9623 38.7774 34.191 39.062 34.359C39.3514 34.527 39.6687 34.611 40.014 34.611ZM51.532 29.76H52.568L46.94 39H45.904L51.532 29.76ZM44.497 31.797C44.497 31.4283 44.588 31.097 44.77 30.803C44.9567 30.5043 45.211 30.2687 45.533 30.096C45.8597 29.9187 46.2283 29.83 46.639 29.83C47.045 29.83 47.4067 29.9187 47.724 30.096C48.046 30.2687 48.3003 30.5043 48.487 30.803C48.6737 31.097 48.767 31.4283 48.767 31.797C48.767 32.1563 48.676 32.4853 48.494 32.784C48.312 33.0827 48.0623 33.3207 47.745 33.498C47.4277 33.6707 47.059 33.757 46.639 33.757C46.2143 33.757 45.841 33.6707 45.519 33.498C45.197 33.3207 44.945 33.0827 44.763 32.784C44.5857 32.4853 44.497 32.1563 44.497 31.797ZM45.561 31.797C45.561 32.1237 45.659 32.385 45.855 32.581C46.051 32.7723 46.31 32.868 46.632 32.868C46.94 32.868 47.1943 32.7747 47.395 32.588C47.5957 32.3967 47.696 32.133 47.696 31.797C47.696 31.475 47.5933 31.2137 47.388 31.013C47.1873 30.8123 46.9353 30.712 46.632 30.712C46.3193 30.712 46.0627 30.8123 45.862 31.013C45.6613 31.2137 45.561 31.475 45.561 31.797ZM49.698 36.97C49.698 36.5967 49.789 36.263 49.971 35.969C50.1577 35.6703 50.412 35.4347 50.734 35.262C51.056 35.0893 51.4247 35.003 51.84 35.003C52.246 35.003 52.6077 35.0893 52.925 35.262C53.247 35.4347 53.5013 35.6703 53.688 35.969C53.8747 36.263 53.968 36.5967 53.968 36.97C53.968 37.3247 53.877 37.6513 53.695 37.95C53.513 38.2487 53.261 38.4867 52.939 38.664C52.6217 38.8413 52.2553 38.93 51.84 38.93C51.4153 38.93 51.042 38.8413 50.72 38.664C50.398 38.4867 50.146 38.2487 49.964 37.95C49.7867 37.6513 49.698 37.3247 49.698 36.97ZM50.762 36.97C50.762 37.2967 50.86 37.558 51.056 37.754C51.252 37.9453 51.511 38.041 51.833 38.041C52.141 38.041 52.3953 37.9453 52.596 37.754C52.7967 37.5627 52.897 37.3013 52.897 36.97C52.897 36.6433 52.7943 36.3797 52.589 36.179C52.3883 35.9783 52.1363 35.878 51.833 35.878C51.5203 35.878 51.2637 35.9783 51.063 36.179C50.8623 36.3797 50.762 36.6433 50.762 36.97Z" fill="#ffffff"/>
</svg>

<svg xmlns="http://www.w3.org/2000/svg" width="70" height="70" fill="none"><path fill="#fff" d="M68.64 44.57H1.36c-1.814.072-1.813 2.663 0 2.735h6.755C12.85 59.029 21.532 66.44 34.646 69.953c.232.063.476.063.708 0C48.47 66.44 57.153 59.03 61.886 47.305h6.754c1.814-.073 1.813-2.663 0-2.735M52.86 47.305a30 30 0 0 1-1.15 2.008C48.046 55.161 42.578 59.156 35 61.518c-7.578-2.362-13.047-6.357-16.711-12.205q-.603-.96-1.15-2.008zM35 67.216c-11.641-3.206-19.483-9.73-23.92-19.911h3.004a34 34 0 0 0 1.887 3.46c4.095 6.534 10.19 10.947 18.635 13.492.257.078.531.078.789 0 8.444-2.545 14.54-6.958 18.634-13.492a34 34 0 0 0 1.887-3.46h3.004C54.484 57.485 46.642 64.01 35 67.216M1.36 25.43h67.28c1.814-.073 1.813-2.663 0-2.735H66.34c.074-1.973.11-4.04.11-6.289 0-.755-.612-1.367-1.367-1.367-7.54 0-13.674-6.133-13.674-13.672C51.41.612 50.797 0 50.042 0H19.958c-.755 0-1.368.612-1.368 1.367 0 7.539-6.134 13.672-13.674 13.672-.755 0-1.368.612-1.368 1.367 0 2.251.036 4.32.11 6.29H1.36c-1.814.071-1.813 2.662 0 2.734m4.928-7.713c7.958-.662 14.321-7.026 14.98-14.983h27.463c.66 7.957 7.023 14.321 14.981 14.983a157 157 0 0 1-.108 4.978h-2.731q.03-.759.05-1.537a1.37 1.37 0 0 0-1-1.354c-6.425-1.794-11.52-6.903-13.295-13.332a1.37 1.37 0 0 0-1.318-1.003h-4.157c-1.814.072-1.813 2.662 0 2.734h3.142c2.152 6.533 7.337 11.74 13.862 13.919l-.021.573H11.864l-.021-.573c6.525-2.18 11.71-7.386 13.862-13.919h3.141c1.814-.072 1.813-2.663 0-2.734H24.69c-.615 0-1.154.41-1.318 1.003-1.776 6.43-6.87 11.538-13.296 13.332a1.37 1.37 0 0 0-.999 1.354q.02.778.05 1.537H6.395c-.06-1.58-.096-3.224-.107-4.978"/><path fill="#fff" d="M35 8.203c1.814-.072 1.812-2.663 0-2.734h-.002c-1.814.072-1.811 2.663.001 2.734M16.413 34.387q0-1.225.294-2.128.3-.903.812-1.491a3.3 3.3 0 0 1 1.148-.882 3.1 3.1 0 0 1 2.639 0q.645.287 1.148.882.504.588.798 1.491t.294 2.128q0 1.267-.294 2.17t-.798 1.484a3.24 3.24 0 0 1-1.148.854 3.33 3.33 0 0 1-2.639 0 3.3 3.3 0 0 1-1.148-.854q-.51-.58-.812-1.484-.294-.903-.294-2.17m1.491 0q0 1.162.273 1.939.28.77.749 1.148.476.37 1.057.371.595 0 1.057-.378.47-.378.742-1.148.273-.77.273-1.932 0-1.14-.273-1.911-.273-.77-.742-1.162a1.57 1.57 0 0 0-1.057-.399q-.581 0-1.057.399-.469.392-.749 1.169-.273.77-.273 1.904m8.316 4.781q-.427 0-.735-.301a1.02 1.02 0 0 1-.302-.742q0-.435.302-.742.308-.308.735-.308.44 0 .742.308.308.308.308.742 0 .435-.308.742-.301.3-.742.301M30.19 39l2.982-3.577q-.133.14-.455.273-.322.126-.805.126-.756 0-1.435-.378a3 3 0 0 1-1.092-1.078q-.413-.693-.413-1.61t.448-1.631q.448-.715 1.197-1.12a3.4 3.4 0 0 1 1.66-.413q.922 0 1.665.399.75.399 1.19 1.134.441.735.441 1.729 0 1.057-.357 1.792a7 7 0 0 1-.833 1.316L31.933 39zm2.072-4.389q.525 0 .952-.252.434-.252.693-.686.26-.435.26-.952a1.8 1.8 0 0 0-.26-.952 1.9 1.9 0 0 0-.693-.686 1.8 1.8 0 0 0-.952-.259q-.518 0-.952.259a1.93 1.93 0 0 0-.686.686 1.84 1.84 0 0 0-.252.952q0 .518.252.952.259.434.686.686.435.252.952.252M37.942 39l2.982-3.577q-.133.14-.455.273-.322.126-.805.126-.756 0-1.435-.378a3 3 0 0 1-1.092-1.078q-.413-.693-.413-1.61t.448-1.631q.448-.715 1.197-1.12a3.4 3.4 0 0 1 1.659-.413 3.46 3.46 0 0 1 1.666.399q.75.399 1.19 1.134.441.735.441 1.729 0 1.057-.357 1.792a7 7 0 0 1-.833 1.316L39.685 39zm2.072-4.389q.525 0 .952-.252.434-.252.693-.686.26-.435.259-.952a1.8 1.8 0 0 0-.259-.952 1.9 1.9 0 0 0-.693-.686 1.8 1.8 0 0 0-.952-.259q-.518 0-.952.259a1.93 1.93 0 0 0-.686.686 1.84 1.84 0 0 0-.252.952q0 .518.252.952.259.434.686.686.435.252.952.252m11.518-4.851h1.036L46.94 39h-1.036zm-7.035 2.037q0-.553.273-.994a2 2 0 0 1 .763-.707 2.3 2.3 0 0 1 1.106-.266q.61 0 1.085.266.483.259.763.707.28.44.28.994 0 .54-.273.987a2 2 0 0 1-.749.714 2.3 2.3 0 0 1-1.106.259q-.637 0-1.12-.259a2 2 0 0 1-.756-.714 1.9 1.9 0 0 1-.266-.987m1.064 0q0 .49.294.784.294.287.777.287.462 0 .763-.28.3-.287.301-.791 0-.483-.308-.784-.3-.3-.756-.301-.47 0-.77.301-.3.3-.301.784m4.137 5.173q0-.56.273-1.001a2 2 0 0 1 .763-.707q.482-.26 1.106-.259.61 0 1.085.259.483.259.763.707.28.441.28 1.001 0 .532-.273.98a2 2 0 0 1-.756.714 2.2 2.2 0 0 1-1.099.266q-.637 0-1.12-.266a2 2 0 0 1-.756-.714 1.9 1.9 0 0 1-.266-.98m1.064 0q0 .49.294.784.294.287.777.287.462 0 .763-.287.3-.287.301-.784 0-.49-.308-.791-.3-.3-.756-.301-.47 0-.77.301-.3.3-.301.791"/></svg>
